src/art_src/wxUiEditor.svg

<?xml version="1.0" encoding="UTF-8" standalone="no"?><!DOCTYPE svg PUBLIC "-//W3C//DTD SVG 1.1//EN" "http://www.w3.org/Graphics/SVG/1.1/DTD/svg11.dtd"><svg width="100%" height="100%" viewBox="0 0 485 485" version="1.1" xmlns="http://www.w3.org/2000/svg" xmlns:xlink="http://www.w3.org/1999/xlink" xml:space="preserve" xmlns:serif="http://www.serif.com/" style="fill-rule:evenodd;clip-rule:evenodd;stroke-linejoin:round;stroke-miterlimit:20;"><g id="XMLID_29_"><g id="g699"><path id="polygon691" d="M137.5,472.5l0,-30l210,0l0,30l-210,0Z" style="fill:#92999d;fill-rule:nonzero;"/><path id="polygon693" d="M202.5,442.5l-35,0l20,-90l110,0l20,90l-35,0l-15,-60l-50,0l-15,60Z" style="fill:#e7eced;fill-rule:nonzero;"/><path id="path695" d="M477.5,12.5l0,340l-470,0l0,-340l470,0Zm-35,305l0,-270l-400,0l0,270l400,0Z" style="fill:#e6e6e6;fill-rule:nonzero;"/><rect id="rect697" x="42.5" y="47.5" width="400" height="270" style="fill:#31c0d8;"/></g><g id="g705"><path id="path701" d="M485,360l0,-355l-485,0l0,355l178.151,0l-16.667,75l-31.484,0l0,45l225,0l0,-45l-31.484,0l-16.667,-75l178.151,0Zm-470,-15l-0,-325l455,0l-0,325l-455,0Zm325,120l-195,0l-0,-15l195,0l-0,15Zm-127.894,-30l11.25,-45l38.288,0l11.25,45l-60.788,0Zm76.25,0l-15,-60l-61.712,0l-15,60l-19.795,0l16.667,-75l97.968,0l16.667,75l-19.795,0Z" style="fill:#231f20;fill-rule:nonzero;"/><path id="path703" d="M450,40l-415,0l0,285l415,0l0,-285Zm-15,270l-385,0l0,-255l385,0l0,255Z" style="fill:#231f20;fill-rule:nonzero;"/></g></g><g id="g1042" transform="matrix(2.81163,0,0,3.07907,66.5042,28.7667)"><g id="g1001" transform="matrix(0.1697,0,0,0.1697,17.758,17.758)"><path id="path993" d="M69.34,155l111.32,0c24.565,0 44.34,19.775 44.34,44.34l-0,111.32c-0,24.565 -19.775,44.34 -44.34,44.34l-111.32,0c-24.565,0 -44.34,-19.775 -44.34,-44.34l-0,-111.32c-0,-24.565 19.775,-44.34 44.34,-44.34Z" style="fill:url(#_Linear1);fill-rule:nonzero;"/><path id="path995" d="M182.057,230.006c-48.531,0.525 -61.796,56.69 -104.9,57.25c-18.635,0.235 -34.53,-12.555 -52.157,-27.7l-0,51.653c-0,24.248 19.797,43.791 44.361,43.791l111.32,0c24.564,0 44.32,-19.543 44.32,-43.791l-0,-70.256c-12.033,-6.606 -25.967,-11.135 -42.944,-10.947Z" style="fill:#f00;fill-opacity:0.25;"/><path id="rect997" d="M83,195.067l0,119.866c0,8.316 -7.393,15.067 -16.5,15.067c-9.107,0 -16.5,-6.751 -16.5,-15.067l0,-119.866c0,-8.316 7.393,-15.067 16.5,-15.067c9.107,0 16.5,6.751 16.5,15.067Z" style="fill:url(#_Linear2);"/><path id="path999" d="M69.468,161.343l111.192,0c21.128,0 37.997,16.879 37.997,38.006l-0,111.32c-0,21.135 -16.865,37.988 -37.997,37.988l-111.32,0c-21.132,0 -37.997,-16.86 -37.997,-37.988l-0,-111.358c-0,-21.132 16.99,-37.968 38.125,-37.968Z" style="fill:none;fill-rule:nonzero;stroke:#800000;stroke-opacity:0.5;stroke-width:12.69px;"/></g><g id="g1011" transform="matrix(0.1697,0,0,0.1697,17.758,17.758)"><path id="path1003" d="M199.34,25l111.32,0c24.565,0 44.34,19.775 44.34,44.34l0,111.32c0,24.565 -19.775,44.34 -44.34,44.34l-111.32,-0c-24.565,-0 -44.34,-19.775 -44.34,-44.34l0,-111.32c0,-24.565 19.775,-44.34 44.34,-44.34Z" style="fill:url(#_Linear3);fill-rule:nonzero;"/><path id="path1005" d="M312.056,100.006c-48.53,0.525 -61.795,56.69 -104.898,57.25c-18.636,0.235 -34.53,-12.555 -52.158,-27.7l0,51.653c0,24.248 19.797,43.791 44.361,43.791l111.32,0c24.564,0 44.319,-19.543 44.319,-43.791l0,-70.256c-12.032,-6.606 -25.966,-11.135 -42.944,-10.947Z" style="fill:#00f;fill-opacity:0.25;"/><path id="rect1007" d="M213,65.067l0,119.866c0,8.316 -7.393,15.067 -16.5,15.067c-9.107,0 -16.5,-6.751 -16.5,-15.067l0,-119.866c0,-8.316 7.393,-15.067 16.5,-15.067c9.107,0 16.5,6.751 16.5,15.067Z" style="fill:url(#_Linear4);"/><path id="path1009" d="M199.468,31.343l111.192,0c21.128,0 37.997,16.879 37.997,38.006l0,111.32c0,21.135 -16.865,37.988 -37.997,37.988l-111.32,-0c-21.132,-0 -37.997,-16.86 -37.997,-37.988l0,-111.358c0,-21.132 16.99,-37.968 38.125,-37.968Z" style="fill:none;fill-rule:nonzero;stroke:#000080;stroke-opacity:0.5;stroke-width:12.69px;"/></g><g id="g1021" transform="matrix(0.1697,0,0,0.1697,17.758,17.758)"><path id="path1013" d="M344.34,120l111.32,0c24.565,0 44.34,19.775 44.34,44.34l0,111.32c0,24.565 -19.775,44.34 -44.34,44.34l-111.32,0c-24.565,0 -44.34,-19.775 -44.34,-44.34l0,-111.32c0,-24.565 19.775,-44.34 44.34,-44.34Z" style="fill:url(#_Linear5);fill-rule:nonzero;"/><path id="path1015" d="M457.056,195.006c-48.53,0.525 -61.795,56.69 -104.898,57.25c-18.636,0.235 -34.53,-12.555 -52.158,-27.7l0,51.653c0,24.248 19.797,43.791 44.361,43.791l111.32,0c24.564,0 44.319,-19.543 44.319,-43.791l0,-70.256c-12.032,-6.606 -25.966,-11.135 -42.944,-10.947Z" style="fill:#c0c000;fill-opacity:0.25;"/><path id="rect1017" d="M358,160.067l0,119.866c0,8.316 -7.393,15.067 -16.5,15.067c-9.107,0 -16.5,-6.751 -16.5,-15.067l0,-119.866c0,-8.316 7.393,-15.067 16.5,-15.067c9.107,0 16.5,6.751 16.5,15.067Z" style="fill:url(#_Linear6);"/><path id="path1019" d="M344.468,126.343l111.192,0c21.128,0 37.997,16.879 37.997,38.006l0,111.32c0,21.135 -16.865,37.988 -37.997,37.988l-111.32,0c-21.132,0 -37.997,-16.86 -37.997,-37.988l-0,-111.358c-0,-21.132 16.99,-37.968 38.125,-37.968Z" style="fill:none;fill-rule:nonzero;stroke:#808000;stroke-opacity:0.5;stroke-width:12.69px;"/></g></g><defs><linearGradient id="_Linear1" x1="0" y1="0" x2="1" y2="-0.0771076" gradientUnits="userSpaceOnUse" gradientTransform="matrix(-101.096,-200,200,-101.096,176.015,354.999)"><stop offset="0" style="stop-color:#f00;stop-opacity:1"/><stop offset="1" style="stop-color:#ffe0e0;stop-opacity:1"/></linearGradient><linearGradient id="_Linear2" x1="0" y1="0" x2="1" y2="0" gradientUnits="userSpaceOnUse" gradientTransform="matrix(45.4495,0,0,45.4495,37.551,254.997)"><stop offset="0" style="stop-color:#fff;stop-opacity:1"/><stop offset="1" style="stop-color:#fff;stop-opacity:0"/></linearGradient><linearGradient id="_Linear3" x1="0" y1="0" x2="1" y2="-0.0768815" gradientUnits="userSpaceOnUse" gradientTransform="matrix(-100.54,-199.999,199.999,-100.54,304.899,224.997)"><stop offset="0" style="stop-color:#00f;stop-opacity:1"/><stop offset="1" style="stop-color:#e0e0ff;stop-opacity:1"/></linearGradient><linearGradient id="_Linear4" x1="0" y1="0" x2="1" y2="0" gradientUnits="userSpaceOnUse" gradientTransform="matrix(45.3404,0,0,45.3404,167.66,124.997)"><stop offset="0" style="stop-color:#fff;stop-opacity:1"/><stop offset="1" style="stop-color:#fff;stop-opacity:0"/></linearGradient><linearGradient id="_Linear5" x1="0" y1="0" x2="1" y2="-0.0770695" gradientUnits="userSpaceOnUse" gradientTransform="matrix(101.001,199.999,-199.999,101.001,349.596,119.999)"><stop offset="0" style="stop-color:#ffffe0;stop-opacity:1"/><stop offset="1" style="stop-color:#ff0;stop-opacity:1"/></linearGradient><linearGradient id="_Linear6" x1="0" y1="0" x2="1" y2="0" gradientUnits="userSpaceOnUse" gradientTransform="matrix(45.449,0,0,45.449,312.551,219.997)"><stop offset="0" style="stop-color:#fff;stop-opacity:1"/><stop offset="1" style="stop-color:#fff;stop-opacity:0"/></linearGradient></defs></svg>

<?xml version="1.0" encoding="UTF-8" standalone="no"?>
<!-- Generator: Adobe Illustrator 19.0.0, SVG Export Plug-In . SVG Version: 6.00 Build 0)  -->

<svg
   version="1.1"
   id="Layer_1"
   x="0px"
   y="0px"
   viewBox="0 0 485 485"
   style="enable-background:new 0 0 485 485;"
   xml:space="preserve"
   sodipodi:docname="logo.svg"
   inkscape:version="1.1.2 (b8e25be833, 2022-02-05)"
   xmlns:inkscape="http://www.inkscape.org/namespaces/inkscape"
   xmlns:sodipodi="http://sodipodi.sourceforge.net/DTD/sodipodi-0.dtd"
   xmlns:xlink="http://www.w3.org/1999/xlink"
   xmlns="http://www.w3.org/2000/svg"
   xmlns:svg="http://www.w3.org/2000/svg"><defs
   id="defs741"><linearGradient
     xlink:href="#a"
     id="e"
     gradientUnits="userSpaceOnUse"
     gradientTransform="matrix(1.00003,0,0,1.00003,-45.008,-319.106)"
     x1="221.01601"
     y1="674.08502"
     x2="119.923"
     y2="474.091" /><linearGradient
     id="a"><stop
       offset="0"
       style="stop-color:red;stop-opacity:1"
       id="stop965" /><stop
       style="stop-color:#ffe0e0;stop-opacity:1"
       offset="1"
       id="stop967" /></linearGradient><linearGradient
     xlink:href="#b"
     id="f"
     gradientUnits="userSpaceOnUse"
     gradientTransform="matrix(0.54556,0,0,0.35025,-38.517,72.607)"
     x1="139.431"
     y1="520.74298"
     x2="222.739"
     y2="520.74298" /><linearGradient
     id="b"><stop
       offset="0"
       style="stop-color:#fff;stop-opacity:1"
       id="stop970" /><stop
       offset="1"
       style="stop-color:#fff;stop-opacity:0"
       id="stop972" /></linearGradient><linearGradient
     xlink:href="#c"
     id="g"
     gradientUnits="userSpaceOnUse"
     gradientTransform="matrix(1.33416,0,0,1.33416,-90.283,-537.514)"
     x1="296.203"
     y1="571.52899"
     x2="220.845"
     y2="421.62299" /><linearGradient
     id="c"><stop
       offset="0"
       style="stop-color:#00f;stop-opacity:1"
       id="stop975" /><stop
       offset="1"
       style="stop-color:#e0e0ff;stop-opacity:1"
       id="stop977" /></linearGradient><linearGradient
     xlink:href="#b"
     id="h"
     gradientUnits="userSpaceOnUse"
     gradientTransform="matrix(0.54556,0,0,0.35025,91.483,-57.393)"
     x1="139.63"
     y1="520.742"
     x2="222.73801"
     y2="520.742" /><linearGradient
     xlink:href="#d"
     id="i"
     gradientUnits="userSpaceOnUse"
     gradientTransform="matrix(1.33416,0,0,1.33416,54.717,-442.514)"
     x1="221.022"
     y1="421.62299"
     x2="296.72601"
     y2="571.52899" /><linearGradient
     id="d"><stop
       offset="0"
       style="stop-color:#ffffe0;stop-opacity:1"
       id="stop980" /><stop
       offset="1"
       style="stop-color:#ff0;stop-opacity:1"
       id="stop982" /></linearGradient><linearGradient
     xlink:href="#b"
     id="j"
     gradientUnits="userSpaceOnUse"
     gradientTransform="matrix(0.54556,0,0,0.35025,236.483,37.607)"
     x1="139.431"
     y1="520.742"
     x2="222.73801"
     y2="520.742" /></defs><sodipodi:namedview
   id="namedview739"
   pagecolor="#ffffff"
   bordercolor="#666666"
   borderopacity="1.0"
   inkscape:pageshadow="2"
   inkscape:pageopacity="0.0"
   inkscape:pagecheckerboard="0"
   showgrid="false"
   inkscape:zoom="0.9757732"
   inkscape:cx="243.90914"
   inkscape:cy="241.34707"
   inkscape:window-width="3840"
   inkscape:window-height="2102"
   inkscape:window-x="-8"
   inkscape:window-y="32"
   inkscape:window-maximized="1"
   inkscape:current-layer="g699"><inkscape:grid
     type="xygrid"
     id="grid1687" /></sodipodi:namedview>
<g
   id="XMLID_29_">
	<g
   id="g699">
		<polygon
   style="display:inline;fill:#92999d"
   points="137.5,472.5 137.5,442.5 167.5,442.5 202.5,442.5 282.5,442.5 317.5,442.5 347.5,442.5 347.5,472.5 "
   id="polygon691" />
		<polygon
   style="display:inline;fill:#e7eced"
   points="202.5,442.5 167.5,442.5 187.5,352.5 297.5,352.5 317.5,442.5 282.5,442.5 267.5,382.5 217.5,382.5 "
   id="polygon693" />
		<path
   style="display:inline;fill:#e6e6e6"
   d="m 477.5,12.5 v 340 h -180 -110 -180 v -340 z m -35,305 v -270 h -400 v 270 z"
   id="path695" />
		<rect
   x="42.5"
   y="47.5"
   style="display:inline;fill:#31c0d8"
   width="400"
   height="270"
   id="rect697" />
	</g>
	<g
   id="g705">
		<path
   style="display:inline;fill:#231f20"
   d="M 485,360 V 5 H 0 v 355 h 178.151 l -16.667,75 H 130 v 45 H 355 V 435 H 323.516 L 306.849,360 Z M 15,345 V 20 H 470 V 345 Z M 340,465 H 145 v -15 h 195 z m -127.894,-30 11.25,-45 h 38.288 l 11.25,45 z m 76.25,0 -15,-60 h -61.712 l -15,60 h -19.795 l 16.667,-75 h 97.968 l 16.667,75 z"
   id="path701" />
		<path
   style="display:inline;fill:#231f20"
   d="M 450,40 H 35 V 325 H 450 Z M 435,310 H 50 V 55 h 385 z"
   id="path703" />
	</g>
</g>
<g
   id="g1042"
   transform="matrix(2.8116307,0,0,3.0790722,66.504199,28.766736)"><g
     style="display:inline"
     transform="matrix(0.1697,0,0,0.1697,17.758,17.758)"
     id="g1001"><path
       d="m 69.34,155 h 111.32 c 24.565,0 44.34,19.775 44.34,44.34 V 310.66 C 225,335.225 205.225,355 180.66,355 H 69.34 C 44.775,355 25,335.225 25,310.66 V 199.34 C 25,174.775 44.775,155 69.34,155 Z"
       style="fill:url(#e);fill-opacity:1;fill-rule:nonzero;stroke:none;stroke-width:38;marker-start:none"
       id="path993" /><path
       d="m 182.057,230.006 c -48.531,0.525 -61.796,56.69 -104.9,57.25 -18.635,0.235 -34.53,-12.555 -52.157,-27.7 v 51.653 C 25,335.457 44.797,355 69.361,355 h 111.32 c 24.564,0 44.32,-19.543 44.32,-43.791 v -70.256 c -12.033,-6.606 -25.967,-11.135 -42.944,-10.947 z"
       style="opacity:0.25;fill:#ff0000;fill-opacity:1;fill-rule:evenodd;stroke:none"
       id="path995" /><rect
       rx="17.844"
       ry="17.844"
       y="180"
       x="50"
       height="150"
       width="33"
       style="fill:url(#f);fill-opacity:1;fill-rule:nonzero;stroke:none"
       id="rect997" /><path
       d="M 69.468,161.343 H 180.66 c 21.128,0 37.997,16.879 37.997,38.006 v 111.32 c 0,21.135 -16.865,37.988 -37.997,37.988 H 69.34 c -21.132,0 -37.997,-16.86 -37.997,-37.988 V 199.311 c 0,-21.132 16.99,-37.968 38.125,-37.968 z"
       style="fill:none;stroke:#800000;stroke-width:12.686;stroke-linecap:butt;stroke-linejoin:round;stroke-miterlimit:20;stroke-dasharray:none;stroke-dashoffset:0;stroke-opacity:0.501961;marker-start:none"
       id="path999" /></g><g
     style="display:inline"
     transform="matrix(0.1697,0,0,0.1697,17.758,17.758)"
     id="g1011"><path
       d="M 199.34,25 H 310.66 C 335.225,25 355,44.775 355,69.34 V 180.66 C 355,205.225 335.225,225 310.66,225 H 199.34 C 174.775,225 155,205.225 155,180.66 V 69.34 C 155,44.775 174.775,25 199.34,25 Z"
       style="fill:url(#g);fill-opacity:1;fill-rule:nonzero;stroke:none;stroke-width:38.281;marker-start:none"
       id="path1003" /><path
       d="m 312.056,100.006 c -48.53,0.525 -61.795,56.69 -104.898,57.25 -18.636,0.235 -34.53,-12.555 -52.158,-27.7 v 51.653 C 155,205.457 174.797,225 199.361,225 h 111.32 C 335.245,225 355,205.457 355,181.209 v -70.256 c -12.032,-6.606 -25.966,-11.135 -42.944,-10.947 z"
       style="opacity:0.25;fill:#0000ff;fill-opacity:1;fill-rule:evenodd;stroke:none"
       id="path1005" /><rect
       rx="17.844"
       ry="17.844"
       y="50"
       x="180"
       height="150"
       width="33"
       style="fill:url(#h);fill-opacity:1;fill-rule:nonzero;stroke:none"
       id="rect1007" /><path
       style="display:inline;fill:none;stroke:#000080;stroke-width:12.686;stroke-linecap:butt;stroke-linejoin:round;stroke-miterlimit:20;stroke-dasharray:none;stroke-dashoffset:0;stroke-opacity:0.501961;marker-start:none"
       d="M 199.468,31.343 H 310.66 c 21.128,0 37.997,16.879 37.997,38.006 v 111.32 c 0,21.135 -16.865,37.988 -37.997,37.988 H 199.34 c -21.132,0 -37.997,-16.86 -37.997,-37.988 V 69.311 c 0,-21.132 16.99,-37.968 38.125,-37.968 z"
       id="path1009" /></g><g
     transform="matrix(0.1697,0,0,0.1697,17.758,17.758)"
     id="g1021"
     style="display:inline"><path
       d="m 344.34,120 h 111.32 c 24.565,0 44.34,19.775 44.34,44.34 V 275.66 C 500,300.225 480.225,320 455.66,320 H 344.34 C 319.775,320 300,300.225 300,275.66 V 164.34 C 300,139.775 319.775,120 344.34,120 Z"
       style="display:inline;fill:url(#i);fill-opacity:1;fill-rule:nonzero;stroke:none;stroke-width:38.2814;marker-start:none"
       id="path1013" /><path
       d="m 457.056,195.006 c -48.53,0.525 -61.795,56.69 -104.898,57.25 -18.636,0.235 -34.53,-12.555 -52.158,-27.7 v 51.653 C 300,300.457 319.797,320 344.361,320 h 111.32 C 480.245,320 500,300.457 500,276.209 v -70.256 c -12.032,-6.606 -25.966,-11.135 -42.944,-10.947 z"
       style="display:inline;opacity:0.25;fill:#c0c000;fill-opacity:1;fill-rule:evenodd;stroke:none"
       id="path1015" /><rect
       rx="17.844"
       ry="17.844"
       y="145"
       x="325"
       height="150"
       width="33"
       style="display:inline;fill:url(#j);fill-opacity:1;fill-rule:nonzero;stroke:none"
       id="rect1017" /><path
       d="M 344.468,126.343 H 455.66 c 21.128,0 37.997,16.879 37.997,38.006 v 111.32 c 0,21.135 -16.865,37.988 -37.997,37.988 H 344.34 c -21.132,0 -37.997,-16.86 -37.997,-37.988 V 164.311 c 0,-21.132 16.99,-37.968 38.125,-37.968 z"
       style="display:inline;fill:none;stroke:#808000;stroke-width:12.686;stroke-linecap:butt;stroke-linejoin:round;stroke-miterlimit:20;stroke-dasharray:none;stroke-dashoffset:0;stroke-opacity:0.501961;marker-start:none"
       id="path1019" /></g></g></svg>
